ix/pen-add_broken.svg

<svg viewBox="0 0 24 24" fill="none" xmlns="http://www.w3.org/2000/svg" height="1em" width="1em">
  <path d="M18.0199 4.85991C16.8199 3.65991 15.1698 3.71993 14.3598 5.00993L12.5898 7.80992L18.2598 13.4799L21.0598 11.7099C22.2698 10.9499 22.3398 9.17991 21.1998 8.04991" stroke="#292D32" stroke-width="1.5" stroke-linecap="round" stroke-linejoin="round"/>
  <path d="M11.2906 21.48L7.0206 21.98C5.1806 22.19 3.8606 20.87 4.0806 19.04L5.06059 10.76" stroke="#292D32" stroke-width="1.5" stroke-linecap="round" stroke-linejoin="round"/>
  <path d="M18.2502 13.47L18.4902 17.59C18.7202 19.89 17.9202 20.69 15.7402 20.95" stroke="#292D32" stroke-width="1.5" stroke-linecap="round" stroke-linejoin="round"/>
  <path d="M12.5801 7.80994L10.8301 7.69995" stroke="#292D32" stroke-width="1.5" stroke-linecap="round" stroke-linejoin="round"/>
  <path d="M5.28125 20.7799L8.46126 17.5898" stroke="#292D32" stroke-width="1.5" stroke-linecap="round" stroke-linejoin="round"/>
  <path d="M11 6.5C11 6.91 10.94 7.32001 10.83 7.70001C10.72 8.10001 10.56 8.47001 10.35 8.82001C10.11 9.22001 9.81001 9.58 9.46001 9.88C8.67001 10.58 7.64 11 6.5 11C5.99 11 5.51 10.92 5.06 10.76C4.04 10.42 3.18999 9.72001 2.64999 8.82001C2.23999 8.14001 2 7.34 2 6.5C2 5.08 2.65 3.80999 3.69 2.98999C4.46 2.36999 5.44 2 6.5 2C8.99 2 11 4.01 11 6.5Z" stroke="#292D32" stroke-width="1.5" stroke-miterlimit="10" stroke-linecap="round" stroke-linejoin="round"/>
  <path d="M6.52148 8.18005V4.82007" stroke="#292D32" stroke-width="1.5" stroke-miterlimit="10" stroke-linecap="round" stroke-linejoin="round"/>
  <path d="M8.16078 6.5H4.80078" stroke="#292D32" stroke-width="1.5" stroke-miterlimit="10" stroke-linecap="round" stroke-linejoin="round"/>
</svg>

<svg viewBox="0 0 24 24" fill="none" xmlns="http://www.w3.org/2000/svg" height="1em" width="1em">
  <path d="M18.02 4.86c-1.2-1.2-2.85-1.14-3.66.15l-1.77 2.8 5.67 5.67 2.8-1.77c1.21-.76 1.28-2.53.14-3.66m-9.91 13.43-4.27.5c-1.84.21-3.16-1.11-2.94-2.94l.98-8.28" stroke="#292D32" stroke-width="1.5" stroke-linecap="round" stroke-linejoin="round"/>
  <path d="m18.25 13.47.24 4.12c.23 2.3-.57 3.1-2.75 3.36M12.58 7.81l-1.75-.11M5.281 20.78l3.18-3.19" stroke="#292D32" stroke-width="1.5" stroke-linecap="round" stroke-linejoin="round"/>
  <path d="M11 6.5c0 .41-.06.82-.17 1.2a4.455 4.455 0 0 1-1.37 2.18C8.67 10.58 7.64 11 6.5 11c-.51 0-.99-.08-1.44-.24a4.466 4.466 0 0 1-2.41-1.94A4.5 4.5 0 0 1 2 6.5c0-1.42.65-2.69 1.69-3.51A4.494 4.494 0 0 1 11 6.5ZM6.521 8.18V4.82M8.16 6.5H4.8" stroke="#292D32" stroke-width="1.5" stroke-miterlimit="10" stroke-linecap="round" stroke-linejoin="round"/>
</svg>
